X: 8
T: No_106_Hinata_Dance_Song_(b).krn
N: Derived from No_106_Hinata_Dance_Song_(b).krn
%%abc-version 2.0
%%abcx-abcm2ps-target-version 5.9.1 (29 Sep 2008)
%%abc-creator hum2abc beta
%%abcx-conversion-date 2019/03/15 08:38:45
%%humdrum-veritas 3423396557
%%humdrum-veritas-data 3545334212
%%linebreak <none>
%%barnumbers 0
L: 1/16
M: 2/4
K: E clef=bass
[K:clef=bass][M:2/4]z4z3 G, | 
A,2A,A,E,4 | 
E,4E,2 z B, | 
A,2A,A,A,4 | 
B,4F,3B, | 
B,A,F,F,/F,/E,4 | 
B,,4E,2 z F, ||  
[M:3/4](E,B,,3)B,,4E,2 z F, ||  
[M:2/4]E,2C,C,B,,4 | 
B,,4E,4 ||  
[M:3/4]F,E,E,C,B,,4E,2 z F, | 
E,B,,3B,,4E,2 z F, ||  
[M:2/4]E,B,,B,,B,,B,,4 |]  



